X:1
T:Title
L:1/8
Q:1/4=90
M:3/4
K:Eb
V:1 treble nm="Church Organ, Staff"
V:1
 G2 G3 F | EF GB B2- | BB e3 c | Ac BG E2 | z2 F>G AG | AF G4 | EF Gc de | d=B c4 | G2 AB c2- | %9
w: By~Arthur~Sullivan * *|||||||||
 cA GA B2- | BG F2 d2 | c2 B4 | e2 dc B2 | c2 BA G2 | B2 FE D2 | F2 E4 | G2 AB c2- | cA GA B2- | %18
w: |||||||||
 BG F2 d2 | c2 B4 | e2 dc B2 | c2 BA G2 | B2 GF E2 | F2 E4- | E2 z2 z2 |] %25
w: |||||||

